X:110
T:My heart is broke since thy departure
T:Gun bhris mo chridh' o'n dh' fhalbh thu
R:Slow Air
S:Simon Fraser Collection
N:No.116
O:Scottish
M:C
L:1/8
Q:1/4=100
K:F
F/>G/|A>Bc>d cAAz/B/|c>f f/e/f/g/ a2 g/z/ F/G/|A>Bc>d c<A a>g|
f>d c<A G2 F:|
c/d/4e/4|f>ga>d dcc c/d/4e/4|f>g ag f2 zc/d/4e/4|f>g a>d c<A a>g|
f>dc>A G2 F c/d/4e/4|f>g a>d dcc c/d/4e/4|f>g a>g f2 zc/d/4e/4|
f>g a>d c<A a>g|f>d c<A G2 F||

